X: 9555
T: Dave Collins'
R: jig
M: 6/8
K: Dmajor
|:c|d2 D FAd|efe edB|d2 B AFE|FAF EFE|
DED FEF|DFA BAF|ABd edB|dfe d2:|
|:e|fdf ece|dfb afe|d2 B AFE|FAF EFE|
DED FEF|DFA BAF|ABd edB|dfe d2:|
|:E|FDF ECE|DFB AFA|BFB FEF|ABc B2 c|
dcB cBA|BAF ECA,|B,CD ECA,|DFE D2:|

